X:1
T:Numberless as the Sands
T:Numberless as the Sands
T:Francis Augustus Blackmer
T:Francis Augustus Blackmer, 1884
T:Public Domain Courtesy of the Cyber Hymnal™
T:Public Domain Courtesy of the Cyber Hymnal™
C:Francis Augustus Blackmer
Z:Public Domain
Z:Courtesy of the Cyber Hymnal™
%%score ( 1 2 ) ( 3 4 )
L:1/8
Q:1/4=105
M:4/4
K:Ab
V:1 treble 
V:2 treble 
V:3 bass 
V:4 bass 
V:1
 [A,C]>[B,D] | [CE]2 [CE]>[DF] [CE]2 [EA]>[EB] | [Ec]4 [CA]2 [EB]>[Ec] | %3
w: 1.~When we|ga- ther at last o- ver|Jor- dan, And the|
w: 2.~When we|see all the saved of the|ag- es, Who from|
w: 3.~When we|stand by the beau- ti- ful|riv- er, ’Neath the|
w: 4.~When at|last we be- hold our Re-|deem- er, And His|
 [Ed]2 [Ec][DB] [CA]2 [=DG]>[DA] | [EB]6 [Ec]>[Ed] | [Ae]2 [Ec][DB] [CA]2 [CA][CE] | %6
w: ran- somed in glo- ry we|see, As the|num- ber- less sands of the|
w: sor- row and tri- als are|free, Meet- ing|there with a heav- en- ly|
w: shade of the life giv- ing|tree, Gaz- ing|o- ver the fair land of|
w: glo- ry tran- scend- ent we|see, While as|king of all king- doms He|
 [E_G]4 [DF]2 [DF]>[DF] | [CE]2 [Ed][Ed] [Ec]2 [EB]>[DB] | [CA]6 z2 || %9
w: sea- shore— What a|won- der- ful sight that will|be!|
w: greet- ing— What a|won- der- ful sight that will|be!|
w: prom- ise— What a|won- der- ful sight that will|be!|
w: reign- eth— What a|won- der- ful sight that will|be!|
"^Refrain" (3[CE][CE][CE] [CE]>[DF] [CE]2 [A,C]>[CE] | [CA]4 [CE]2 z2 | %11
w: ||
w: Num- ber- less as the sands of the|sea- shore!|
w: ||
w: ||
 (3[CE][CE][CE] [EA]>[EB] [Ec]2 [EB]>[=DA] | !fermata!e6 !fermata![Ed]2 | %13
w: ||
w: Num- ber- less as the sands of the|shore! Oh,|
w: ||
w: ||
 [Ec]>[Ed] [Ae]>[Ec] [CA]2 | [EA]>[EG] | [DF]>[FA] [EG]>[DF] [CE]2 [CE]2 | %16
w: |||
w: what a sight ’twill be,|When the|ran- somed host we see, As|
w: |||
w: |||
 (3[CE][CE][CE] [EA]>[EB] [Ec]2 [EA]>[Ec] | [DB]4 [CA]2 |] %18
w: ||
w: num- ber- less as the sands of the|sea- shore!|
w: ||
w: ||
V:2
 x2 | x8 | x8 | x8 | x8 | x8 | x8 | x8 | x8 || x8 | x8 | x8 | (EGB>A G2) x2 | x6 | x2 | x8 | x8 | %17
 x6 |] %18
V:3
 [A,,E,]>[A,,E,] | [A,,A,]2 [A,,A,]>[A,,A,] [A,,A,]2 [C,A,]>[E,G,] | A,4 A,2 [E,G,]>[E,A,] | %3
w: ~ ~|~ ~ ~ ~ ~ ~|~ ~ ~ ~|
 [E,B,]2 [E,A,][E,G,] [F,A,]2 [B,,A,]>[B,,F,] | [E,G,]6 A,>[A,B,] | %5
w: ~ ~ ~ ~ ~ ~|~ ~ ~|
 [A,C]2 [A,,A,][A,,E,] [A,,E,]2 [A,,E,][A,,A,] | [C,A,]4 [D,A,]2 [D,A,]>[D,A,] | %7
w: ~ ~ ~ ~ ~ ~|~ ~ ~ ~|
 [E,A,]2 [E,B,][E,B,] [E,A,]2 [E,G,]>[E,G,] | [A,,A,]6 z2 || %9
w: ~ ~ ~ ~ ~ ~|~|
 (3[A,,A,][A,,A,][A,,A,] [A,,A,]>[A,,A,] [A,,A,]2 [A,,E,]>[A,,E,] | [A,,E,]4 [A,,A,]2 z2 | %11
w: ~ ~ ~ ~ ~ ~ ~ ~|~ ~|
 (3[A,,A,][A,,A,][A,,A,] [C,A,]>[E,G,] A,2 [G,B,]>[F,B,] | (G,B, D>)C !fermata!B,2 [G,B,]2 | %13
w: ~ ~ ~ ~ ~ ~ ~ ~|~ * * of the shore!|
 A,>[A,B,] [A,C]>A, A,2 | [C,A,]>[C,A,] | [D,A,]>[D,A,] [D,A,]>[D,A,] [A,,A,]2 [A,,A,]2 | %16
w: |||
 (3[A,,A,][A,,A,][A,,A,] [C,A,]>[E,G,] A,2 [A,C]>A, | [E,G,]4 [A,,A,]2 |] %18
w: ||
V:4
 x2 | x8 | A,4 A,2 x2 | x8 | x6 A,3/2 x/ | x8 | x8 | x8 | x8 || x8 | x8 | x4 A,2 x2 | E,6 x2 | %13
 A,3/2 x/ A,/ A,2 x3/2 | x2 | x8 | x4 A,2 A,/ x3/2 | x6 |] %18

